X: 13099
T: Fire In Clann Ratha
R: reel
M: 4/4
K: Gmajor
|:Bd|g3g afge|d2 Bd AGEG|DEGA Bd d/d/d|ea{b/}aa {b/}agef|
g2 bg aege|dABd AGEG|DEGA Bdge|1 dBAB G2:|2 dBAB G3||
c|BG G/G/G DGBG|DGBG ABcA|dega b/a/g ag|fdcA d2cA|
BG{A}GG ~G3 D|G2 BG ABcA|dega b/a/g ag|fdcA G3 c|
BG{A}GG G3 D|G2 BG ABcA|dega b/a/g ag|fdcA d3 A|
BG G/G/G G3 D|G2 BG ABcA|dega b/a/g ag|fdcA G3||
|:A|B3 B cBcA|defd {e}dcAc|~B3 B cBcA|dcAF G3 D|
G2 BG ABcA|defd {e}dcAc|dega b/a/g ag|1 fdcA G3:|2 fdcA G2||

